!!!!SEGMENT: pl-wtm--r-2019--002_smietanski-emil-wladyslaw--grenouilles-polka-op-14.krn
!!!cenid: 18xx:2001
!!!COM: Śmietański, Emil Władysław
!!!COM-rismID: pe50041781
!!!CDT: 1845-1886
!!!CNT: Polish
!!!OTL: Grenouilles Polka op. 14
!!!PDT: 1867
!!!AGN: Secular
!!!SMS-siglum: PL-Wtm
!!!SMS-shelfmark: R 2019
!!!SMS-shelfwork: 002 W
!!!SMS-variant:
!!!SMS-altvar:
!!!NIFC-rismSourceID: 1001112335
!!!NIFC-islandoraID: pl-wtm:29450
!!!URL-pdf-islandora: https://repozytorium.nifc.pl/islandora/object/pl-wtm%3A29450/datastream/PDF/view
!!!URL-scan: https://polish.musicsources.pl/pl/lokalizacje/galeria/rekopisy/6511 @EN{Scan on Polish Music Sources Website} @PL{Skany w portalu Dziedzictwo Muzyki Polskiej w otwartym dostępie}
!!!ONB-nifc: UWAGA: w zbiorze 1. Impromptu i 2. Grenouilles Polka
!!!AIN: 1 forte
!!!key:
**kern	**kern	**dynam
*part1	*part1	*part1
*staff2	*staff1	*
*Iforte	*Iempty	*
*I"[Fortepian]	*	*
*I'pf	*	*
*clefF4	*clefG2	*
*k[b-e-a-d-]	*k[b-e-a-d-]	*
*A-:	*A-:	*
*M2/4	*M2/4	*
*>[A,B,B,C,C,D]	*>[A,B,B,C,C,D]	*
=1	=1	=1
*>A	*>A	*
*clefG2	*	*
!	!	!LO:DY:t=pp.
32cc/LLL	32ee-\LLL	pp
32bn/	32dd-\	.
32cc/	32ee-\	.
32b/	32dd-\	.
32cc/	32ee-\	.
32b/	32dd-\	.
32cc/	32ee-\	.
32b/	32dd-\	.
32cc/	32ee-\	.
32b/	32dd-\	.
32cc/	32ee-\	.
32b/	32dd-\	.
32cc/	32ee-\	.
32b/	32dd-\	.
32cc/	32ee-\	.
32b/JJJ	32dd-\JJJ	.
=2	=2	=2
!	!LO:TX:a:i:t=Grenouilles_Polka.	!
32cc/LLL	32ee-\LLL	.
32bn/	32dd-\	.
32cc/	32ee-\	.
32b/	32dd-\	.
32cc/	32ee-\	.
32b/	32dd-\	.
32cc/	32ee-\	.
32b/	32dd-\	.
32cc/	32ee-\	.
32b/	32dd-\	.
32cc/	32ee-\	.
32b/	32dd-\	.
32cc/	32ee-\	.
32b/	32dd-\	.
32cc/	32ee-\	.
32b/JJJ	32dd-\JJJ	.
=3	=3	=3
*^	*	*
.	16qqf#X\	.	.
32cc/LLL	4fn\ 4g	32ee-\LLL	.
32bn/	.	32dd-\	.
32cc/	.	32ee-\	.
32b/	.	32dd-\	.
32cc/	.	32ee-\	.
32b/	.	32dd-\	.
32cc/	.	32ee-\	.
32b/	.	32dd-\	.
32cc/	4r	32ee-\	.
32b/	.	32dd-\	.
32cc/	.	32ee-\	.
32b/	.	32dd-\	.
32cc/	.	32ee-\	.
32b/	.	32dd-\	.
32cc/	.	32ee-\	.
32b/JJJ	.	32dd-\JJJ	.
=4	=4	=4	=4
.	16qqf#X\	.	.
32cc/LLL	4fn\ 4g	32ee-\LLL	.
32bn/	.	32dd-\	.
32cc/	.	32ee-\	.
32b/	.	32dd-\	.
32cc/	.	32ee-\	.
32b/	.	32dd-\	.
32cc/	.	32ee-\	.
32b/	.	32dd-\	.
32cc/	4r	32ee-\	.
32b/	.	32dd-\	.
32cc/	.	32ee-\	.
32b/	.	32dd-\	.
!	!	!LO:TX:a:i:t=E. Smietanski. 1867	!
32cc/	.	32ee-\	.
32b/	.	32dd-\	.
32cc/	.	32ee-\	.
32b/JJJ	.	32dd-\JJJ	.
=5	=5	=5	=5
.	16qqf#X\	.	.
32cc/LLL	4fn\ 4g	32ee-\LLL	.
32bn/	.	32dd-\	.
32cc/	.	32ee-\	.
32b/	.	32dd-\	.
32cc/	.	32ee-\	.
32b/	.	32dd-\	.
32cc/	.	32ee-\	.
32b/	.	32dd-\	.
32cc/	4r	32ee-\	.
32b/	.	32dd-\	.
32cc/	.	32ee-\	.
32b/	.	32dd-\	.
32cc/	.	32ee-\	.
32b/	.	32dd-\	.
32cc/	.	32ee-\	.
32b/JJJ	.	32dd-\JJJ	.
*v	*v	*	*
!!LO:LB:g=original
=6	=6	=6
32cc/LLL	32ee-\LLL	.
32bn/	32dd-\	.
32cc/	32ee-\	.
32b/	32dd-\	.
32cc/	32ee-\	.
32b/	32dd-\	.
32cc/	32ee-\	.
32b/	32dd-\	.
32cc/	32ee-\	.
32b/	32dd-\	.
32cc/	32ee-\	.
32b/	32dd-\	.
32cc/	32ee-\	.
32b/	32dd-\	.
32cc/	32ee-\	.
!LO:TX:t=[segno]	!LO:TX:t=[segno]	!
32b/JJJ	32dd-\JJJ	.
=7||	=7||	=7||
*>B	*>B	*
!	!	!LO:DY:t=p.
32cc\LLL	32ee-\LLL	p
32b-X\	32dd-\	.
32cc\	32ee-\	.
32b-\	32dd-\	.
32cc\	32ee-\	.
32b-\	32dd-\	.
32cc\	32ee-\	.
32b-\JJJ	32dd-\JJJ	.
8d-/ 8f	16aa-`\	.
.	16r	.
8r	8b-\ 8dd-	.
*clefF4	*	*
=8	=8	=8
!LO:TX:t=P:problem=mixed beam	!	!
8EE-/L	32b-\LLL 32dd-	.
.	32a-\ 32cc	.
.	32b-\ 32dd-	.
.	32a-\ 32cc	.
8E-\J 8A- 8c	32b-\ 32dd-	.
.	32a-\ 32cc	.
.	32b-\ 32dd-	.
.	32a-\JJJ 32cc	.
8e-\	16a-`:\ 16cc: 16ff:	.
.	16r	.
8r	8a-\ 8cc	.
=9	=9	=9
!LO:TX:t=P:problem=mixed beam	!	!
8EE-/L	16a-\LL 16cc	.
.	16dn\JJ 16b-	.
8E-\J 8A- 8B- 8dn	8a-\ 8b- 8ff	.
!LO:TX:t=P:problem=mixed beam	!	!
8EE-/L	16g\LL 16cc	.
.	16d-X\JJ 16b-	.
8E-\J 8G 8d	8g\ 8b- 8ee-	.
=10	=10	=10
8AA-\L	16e-\LL 16b-	.
.	16c\JJ 16a-	.
8E-\J 8A- 8c	8a-\L 8ee-	.
*clefG2	*	*
4e-/ 4a- 4cc	8ee-\J 8aa- 8eee-	.
*	*8va	*
.	8eee-\ 8aaa- 8eeee-	.
*	*X8va	*
*clefF4	*	*
=11	=11	=11
!LO:TX:t=P:problem=mixed beam	!	!
8DD-/L	(32cc\LLL 32ee-	.
.	32b-\ 32dd-	.
.	32cc\ 32ee-	.
.	32b-\ 32dd-	.
8D-\J 8A- 8B-	32cc\ 32ee-	.
.	32b-\ 32dd-	.
.	32cc\ 32ee-	.
.	32b-\JJJ 32dd-	.
8f\	16b-:\) 16dd-: 16aa-:	.
.	16r	.
8r	8b-\ 8dd-	.
!!LO:LB:g=original
=12	=12	=12
!LO:TX:t=P:problem=mixed beam	!	!
8EE-/L	32b-\LLL 32dd-	.
.	32a-\ 32cc	.
.	32b-\ 32dd-	.
.	32a-\ 32cc	.
8E-\J 8A- 8c	32b-\ 32dd-	.
.	32a-\ 32cc	.
.	32b-\ 32dd-	.
.	32a-\JJJ 32cc	.
8c\ 8e-	16a-:\ 16cc: 16ff:	.
.	16r	.
8r	8a-\ 8cc	.
=13	=13	=13
!LO:TX:t=P:problem=mixed beam	!	!
8EE-/L	16a-\LL 16cc	.
.	16dn\JJ 16b-	.
8E-\J 8A- 8B- 8dn	8a-\ 8b- 8ff	.
!LO:TX:t=P:problem=mixed beam	!	!
8EE-/L	16g\LL 16cc	.
.	16d-X\JJ 16b-	.
8E-\J 8G 8d-X	8g\ 8b- 8ee-	.
=14	=14	=14
!LO:TX:t=P:problem=mixed beam	!	!
8AA-/L	8c\L 8e- 8a-	.
8e-\J 8a-	8cc\J 8ee- 8aa-	.
*clefG2	*	*
4ee-\ 4aa-	4ccc\ 4eee- 4aaa-	.
*clefF4	*	*
=15:|!|:	=15:|!|:	=15:|!|:
*>C	*>C	*
!	!	!LO:DY:t=ff.
8EE-\L 8BB- 8E-	16ee-\LL 16gg	ff
.	16b-\ 16ff	.
8G\J 8B- 8e- 8g	16g\ 16ee-	.
.	16b-\JJ 16ddn	.
4G\ 4B- 4e- 4g	8cc\L 8ee-	.
.	(8g\J 8b-	.
=16	=16	=16
!LO:TX:t=P:problem=mixed beam	!	!
8BBB-/L 8BB-	8cc\) 8ddn	.
8F\J 8A- 8B- 8dn	(8a-\L 8b-	.
4F\ 4A- 4c-X 4d	8cc-X\J) 8dd	.
.	8a-\ 8cc-	.
=17	=17	=17
8BB-\L	16b-\LL 16dd-	.
.	16cc\ 16ee-	.
8F\J 8B- 8dn	16cc#X\ 16een	.
.	16ddn\JJ 16ff	.
4B-\ 4d 4a-	16dd'\LL 16ccc	.
!	!LO:TX:b:i:t=rit.	!
.	16bb-\	.
.	16aan\	.
.	16aa-X\JJ	.
!!LO:LB:g=original
=18	=18	=18
!LO:TX:t=P:problem=mixed beam	!LO:TX:b:i:t=con espres.	!
8EE-/L	16ee-\LL 16gg	.
.	16ddn\	.
8G\J 8B- 8e- 8g	16dd-X\ 16gg	.
.	16cc\JJ	.
8A-\L 8B- 8dn 8a-	16cc-X\LL 16aa-	.
.	16b-\	.
8BB-\J	16an\ 16ddn	.
.	16a-X\JJ	.
=19	=19	=19
!LO:TX:t=P:problem=mixed beam	!	!LO:DY:t=ff.
8EE-/L 8BB- 8E-	16g\LL 16ee- 16gg	ff
.	16b-\ 16ff	.
8G\J 8B- 8e- 8g	16g\ 16ee-	.
.	16b-\JJ 16ddn	.
4G\ 4B- 4e- 4g	8cc\L 8ee-	.
.	(8g\J 8b-	.
=20	=20	=20
!LO:TX:t=P:problem=mixed beam	!	!
8BBB-/L 8BB-	8ccn\) 8dd-	.
8F\J 8A- 8B- 8dn	(8a-\L 8b-	.
4F\ 4A- 4c-X 4d	8cc-X\J) 8dd-	.
.	8a-\ 8cc-	.
=21	=21	=21
8BB-\L	16b-\LL 16ddn	.
.	16cc\ 16ee-	.
8F\J 8B- 8dn	16cc#X\ 16een	.
.	16dd\JJ 16ff	.
8B-\L 8d 8a-	16dd\LL 16bb-	.
.	16bbn\	.
8BB-\J	16ccc\	.
.	16dddn\JJ	.
=22	=22	=22
8EE-^^</ 8E-	8ee-^^\ 8eee-	.
8r	8r	.
4B-;\ 4d- 4f-X	4g;\ 4dd- 4ff-X	mf
=23	=23	=23
32e-\LLL	(32cc\LLL 32ee-	.
32d-\	32b-\ 32dd-	.
32e-\	32cc\ 32ee-	.
32d-\	32b-\ 32dd-	.
32e-\	32cc\ 32ee-	.
32d-\	32b-\ 32dd-	.
32e-\	32cc\ 32ee-	.
32d-\JJJ	32b-\JJJ 32dd-	.
8D-\ 8B- 8f	16b-:'\) 16dd-: 16aa-:	.
.	16r	.
!	!	!LO:DY:t=p.
8r	8b-\ 8dd-	p
!!LO:LB:g=original
=24	=24	=24
!LO:TX:t=P:problem=mixed beam	!	!
8EE-/L	(32b-\LLL 32dd-	.
.	32a-\ 32cc	.
.	32b-\ 32dd-	.
.	32a-\ 32cc	.
8E-\J 8A- 8c	32b-\ 32dd-	.
.	32a-\ 32cc	.
.	32b-\ 32dd-	.
.	32a-\JJJ 32cc	.
8e-\	16a-'\) 16cc 16ff	.
.	16r	.
8r	8a-\ 8cc	.
=25	=25	=25
!LO:TX:t=P:problem=mixed beam	!	!
8EE-/L	16a-\LL 16cc	.
.	16dn\JJ 16b-	.
8E-\J 8A- 8B- 8dn	8a-\ 8b- 8ff	.
!LO:TX:t=P:problem=mixed beam	!	!
8EE-/L	16g\LL 16cc	.
.	16d-X\JJ 16b-	.
8E-\J 8G 8d-X	8g\ 8b- 8ee-	.
=26	=26	=26
8AA-\L	16e-/LL 16b-	.
.	16c/JJ 16a-	.
8E-\J 8A- 8c	8a-\L 8ee-	.
*clefG2	*	*
4e-/ 4a- 4cc	8ee-\J 8aa- 8eee-	.
*	*8va	*
.	8eee-\ 8aaa- 8eeee-	.
*	*X8va	*
*clefF4	*	*
=27	=27	=27
!LO:TX:t=P:problem=mixed beam	!	!
8DD-/L	(32cc\LLL 32ee-	f
.	32b-\ 32dd-	.
.	32cc\ 32ee-	.
.	32b-\ 32dd-	.
8D-\J 8A- 8B-	32cc\ 32ee-	.
.	32b-\ 32dd-	.
.	32cc\ 32ee-	.
.	32b-\JJJ 32dd-	.
8f\	16b-':\) 16dd-: 16aa-:	.
.	16r	.
8r	8b-\ 8dd-	.
=28	=28	=28
!LO:TX:t=P:problem=mixed beam	!	!
8EE-/L	32b-\LLL 32dd-	.
.	32a-\ 32cc	.
.	32b-\ 32dd-	.
.	32a-\ 32cc	.
8E-\J 8A- 8c	32b-\ 32dd-	.
.	32a-\ 32cc	.
.	32b-\ 32dd-	.
.	32a-\JJJ 32cc	.
8e-\	16a-\ 16cc 16ff	.
.	16r	.
8r	8a-\ 8cc	.
!!LO:LB:g=original
=29	=29	=29
!LO:TX:t=P:problem=mixed beam	!	!
8EE-/L	16a-\LL 16cc	.
.	16dn\JJ 16b-	.
8E-\J 8A- 8B- 8dn	8a-\ 8b- 8ff	.
!LO:TX:t=P:problem=mixed beam	!	!
8EE-/L	16g\LL 16cc	.
.	16d-X\JJ 16b-	.
8E-\J 8G 8d-X	8g\ 8b- 8ee-	.
=30	=30	=30
8AA-\L	8c\L 8e- 8a-	.
8e-\J 8a-	8cc\J 8ee- 8aa-	.
*clefG2	*	*
4ee-\ 4aa-	4ccc\ 4eee- 4aaa-	.
*clefF4	*	*
=31:|!	=31:|!	=31:|!
*k[b-e-a-d-g-]	*k[b-e-a-d-g-]	*
*>D	*>D	*
!LO:TX:t=P:problem=mixed beam	!LO:TX:a:i:t=stacato.	!LO:DY:t=p.
8DD-/L	16b-\LL 16dd-	p
.	16f\ 16a-	.
8F\J 8d-	16b-\ 16dd-	.
.	16f\JJ 16an	.
4D-\ 4A-	16b-\LL 16dd-	.
.	16f\ 16a-X	.
.	16b-\ 16dd-	.
.	16f\JJ 16gn	.
=32	=32	=32
8AA-\L	16b-\LL 16cc	.
.	16g-X\ 16a-	.
8G-\J 8c	16b-\ 16cc	.
.	16g-\JJ 16an	.
4E-\ 4A-	16b-\LL 16cc	.
.	16g-\ 16a-X	.
.	16b-\ 16cc	.
.	16gn\JJ	.
.	16qqg-X/	.
=33	=33	=33
!LO:TX:t=P:problem=mixed beam	!	!LO:DY:t=ff.
8AAA-/L 8AA-	16g-\LL 16a-	ff
.	16a-\ 16cc	.
8E-\J 8c	16cc\ 16aa-	.
.	16cc\JJ 16aa-	.
8A-\ 8g-	16cc\LL 16aa-	.
.	16a-\ 16cc	.
8r	16g-\ 16a-	.
.	16g-\JJ 16a-	.
!!LO:LB:g=original
=34	=34	=34
!LO:TX:t=P:problem=mixed beam	!	!
8DD-/L	16f\LL 16a-	.
.	16a-\ 16dd-	.
8F\J 8d-	16dd-\ 16aa-	.
.	16dd-\JJ 16aa-	.
4A-\ 4f	16dd-\LL 16aa-	.
.	16a-\ 16dd-	.
.	16f\ 16a-	.
.	16f\JJ 16a-	.
=35	=35	=35
!LO:TX:t=P:problem=mixed beam	!	!LO:DY:t=p.
8DD-/L	16b-\LL 16dd-	p
.	16f\ 16a-	.
8F\J 8d-	16b-\ 16dd-	.
.	16f\JJ 16an	.
4D-\ 4A-	16b-\LL 16dd-	.
.	16f\ 16a-X	.
.	16b-\ 16dd-	.
.	16f\JJ 16gn	.
=36	=36	=36
8AA-\L	16b-\LL 16cc	.
.	16g-X\ 16a-	.
8G-\J 8c	16b-\ 16cc	.
.	16g-\JJ 16an	.
4E-\ 4A-	16b-\LL 16cc	.
.	16g-\ 16a	.
.	16b-\ 16cc	.
.	16g-\JJ	.
.	16qqgn/	.
=37	=37	=37
!LO:TX:t=P:problem=mixed beam	!	!LO:DY:t=ff.
8AAA-/L 8AA-	16g-X\LL 16a-	ff
.	16a-\ 16cc	.
8E-\J 8c	16cc\ 16aa-	.
.	16cc\JJ 16aa-	.
4A-\ 4g-	16cc\LL 16aa-	.
.	16a-\ 16cc	.
.	16g-\ 16a-	.
.	16g-\JJ 16a-	.
=38	=38	=38
4DD-/	16f\LL 16a-	.
.	16a-\ 16dd-	.
.	16dd-\ 16aa-	.
.	16dd-\JJ 16aa-	.
4F\ 4A- 4d- 4a-	4aa-\ 4ddd-	.
!!LO:LB:g=original
=39	=39	=39
8D-\L	16bb-\LL 16ddd-	p
.	16ff\ 16aa-	.
*clefG2	*	*
8d-\J 8f 8dd-	16bb-\ 16ddd-	.
.	16ff\JJ 16aan	.
4A-/ 4f 4a-	16bb-\LL 16ddd-	.
.	16ff\ 16aa-X	.
.	16bb-\ 16ddd-	.
.	16ff\JJ 16ggn	.
*clefF4	*	*
=40	=40	=40
8AA-/L	16bb-\LL 16ccc	.
.	16gg-\ 16aa-	.
*clefG2	*	*
8c/J 8g- 8cc	16bb-\ 16ccc	.
.	16gg-\JJ 16aan	.
4A-/ 4g- 4a-	16bb-\LL 16ccc	.
.	16gg-\ 16aa-X	.
.	16bb-\ 16ccc	.
.	16gg-\JJ 16ggn	.
*clefF4	*	*
=41	=41	=41
8AA-\L	16gg-X\LL 16aa-	f
.	16aa-\ 16ccc	.
*clefG2	*	*
8c\J 8g- 8cc	16ccc\ 16aaa-	.
.	16ccc\JJ 16aaa-	.
4g-\ 4cc 4gg-	16ccc\LL 16aaa-	.
.	16aa-\ 16ccc	.
.	16gg-\ 16aa-	.
.	16gg-\JJ 16aa-	.
*clefF4	*	*
=42	=42	=42
8D-\L	16ff\LL 16aa-	.
.	16aa-\ 16ddd-	.
*clefG2	*	*
8d-\J 8f 8dd-	16ddd-\ 16aaa-	.
.	16ddd-\JJ 16aaa-	.
4f\ 4dd- 4ff	16ddd-\LL 16aaa-	.
.	16aa-\ 16ddd-	.
.	16ff\ 16aa-	.
.	16ff\JJ 16aa-	.
*clefF4	*	*
=43	=43	=43
8D-\L	16bb-\LL 16ddd-	.
.	16ff\ 16aa-	.
*clefG2	*	*
8d-\J 8f 8dd-	16bb-\ 16ddd-	.
.	16ff\JJ 16aan	.
!	!LO:TX:b:i:t=rall.	!
4c-X\ 4f 4cc-X	16bb-\LL 16ddd-	.
.	16ff\ 16aa-X	.
.	16bb-\ 16ddd-	.
.	16ff\JJ 16ggn	.
!!LO:PB:g=original
*clefF4	*	*
=44	=44	=44
8BB-\L	16ggn\LL 16bb-	.
.	16ddn\ 16ff	.
8B-\J 8dn 8b-	16gg\ 16bb-	.
.	16dd\JJ 16ff#X	.
4A-\ 4d 4a-	16gg\LL 16bb-	.
.	16dd\ 16ffn	.
!	!LO:TX:b:i:t=rall:problem=with extention lines	!
.	16gg\ 16bb-	.
.	16dd\JJ 16een	.
=45	=45	=45
8GGn\L	16een\LL 16ggn	.
.	16bn\ 16ddn	.
8Gn\J 8Bn 8gn	16ee\ 16gg	.
.	16b\JJ 16dd#X	.
4F\ 4B 4f	16ee\LL 16gg	.
.	16b\ 16ddn	.
.	16ee\ 16gg	.
.	16b\JJ 16cc#X	.
=46	=46	=46
!LO:TX:t=P:problem=mixed beam	!	!
8FF-X/L	16dd-X\LL 16ff-X	.
.	16a-\ 16cc-X	.
8F-X\J 8A- 8f-X	16dd-\ 16ff-	.
.	16a-\JJ 16ccn	.
4E--\ 4A- 4e--	16dd-\LL 16ff-	.
.	16a-\ 16cc-X	.
.	16dd-\ 16ff-	.
.	16a-\JJ 16b-	.
=47||	=47||	=47||
!LO:TX:t=P:problem=mixed beam	!	!LO:TX:t=p.
8DD-/L	16b-\LL 16dd-	p
.	16f\ 16a-	.
8F\J 8d-	16b-\ 16dd-	.
.	16f\JJ 16an	.
4D-\ 4A-	16b-\LL 16dd-	.
.	16f\ 16a-X	.
.	16b-\ 16dd-	.
.	16f\JJ 16gn	.
=48	=48	=48
8AA-\L	16b-\LL 16cc	.
.	16g-\ 16a-	.
8G-\J 8c	16b-\ 16cc	.
.	16g-\JJ 16an	.
!	!LO:TX:a:t=E. Smietański	!
4E-\ 4A-	16b-\LL 16cc	.
.	16g-\ 16a-X	.
.	16b-\ 16cc	.
.	16g-\JJ 16gn	.
!!LO:LB:g=original
=49	=49	=49
!LO:TX:t=P:problem=mixed beam	!	!
8AAA-/L 8AA-	16g-\LL 16a-	f
.	16a-\ 16cc	.
8E-\J 8c	16cc\ 16aa-	.
.	16cc\JJ 16aa-	.
4A-\ 4g-	16cc\LL 16aa-	.
.	16a-\ 16cc	.
.	16g-\ 16a-	.
.	16g-\JJ 16a-	.
=50	=50	=50
!LO:TX:t=P:problem=mixed beam	!	!
8DD-/L	16f\LL 16a-	.
.	16a-\ 16dd-	.
8F\J 8d-	16dd-\ 16aa-	.
.	16dd-\JJ 16aa-	.
4A-\ 4f	16dd-\LL 16aa-	.
.	16a-\ 16dd-	.
.	16f\ 16a-	.
.	16f\JJ 16a-	.
=51	=51	=51
!LO:TX:t=P:problem=mixed beam	!	!LO:DY:t=p.
8DD-/L	16b-\LL 16dd-	p
.	16f\ 16a-	.
8F\J 8d-	16b-\ 16dd-	.
.	16f\JJ 16an	.
4D-\ 4A-	16b-\LL 16dd-	.
.	16f\ 16a-X	.
.	16b-\ 16dd-	.
.	16f\JJ 16gn	.
=52	=52	=52
!LO:TX:t=P:problem=mixed beam	!	!LO:DY:t=f.
8CC-X/L	(32f/LLL 32a-	f
.	32en/ 32gn	.
.	32f/ 32a-	.
.	32e/ 32g	.
8F\J 8d-	32f/ 32a-	.
.	32e/ 32g	.
.	32f/ 32a-	.
.	32e/JJJ 32g	.
!	!LO:TX:b:i:t=rit.	!
4D-\ 4A-	16f':/) 16a-: 16dd-:	.
.	16r	.
.	8f/ 8a-	.
=53	=53	=53
!	!LO:TX:b:i:t=à tempo	!
8BBB-/L 8BB-	16ee-\LL 16gg-	.
.	16b-\ 16dd-	.
*clefG2	*	*
8G-/J 8B- 8g-	16ee-\ 16gg-	.
.	16b-\JJ 16ddn	.
*clefF4	*	*
4D-\ 4B- 4d-	16ee-\LL 16gg-	.
.	16b-\ 16dd-X	.
.	16ee-\ 16gg-	.
.	16b-\JJ 16cc	.
!!LO:LB:g=original
=54	=54	=54
!LO:TX:t=P:problem=mixed beam	!LO:TX:b:i:t=riten.	!LO:DY:t=f.
8EEE-/L 8EE-	32b-\LLL 32dd-	f
.	32an\ 32cc	.
.	32b-\ 32dd-	.
.	32a\ 32cc	.
8Gn\J 8d- 8gn	32b-\ 32dd-	.
.	32a\ 32cc	.
.	32b-\ 32dd-	.
.	32a\JJJ 32cc	.
4G;\ 4d- 4g	16b-;:\ 16dd-: 16ggn:	.
.	16r	.
.	8b-\ 8dd-	.
=55	=55	=55
32qqen>\	.	.
!	!	!LO:DY:t=pp.
32e-X>\LLL 32f> 32b->	32dd-/LLL	pp
32an>\	32cc-X/	.
32b->\	32dd-/	.
32a>\	32cc-/	.
32b->\	32dd-/	.
32a>\	32cc-/	.
32b->\	32dd-/	.
32a>\	32cc-/	.
32b->\	32dd-/	.
32a>\	32cc-/	.
32b->\	32dd-/	.
32a>\	32cc-/	.
32b->\	32dd-/	.
32a>\	32cc-/	.
32b->\	32dd-/	.
32a>\JJJ	32cc-/JJJ	.
=56	=56	=56
!LO:TX:t=P:problem=mixed beam	!	!LO:DY:t=f.
8EEn/L 8En	32b-\LLL 32dd-	f
.	32an\ 32cc	.
.	32b-\ 32dd-	.
.	32a\ 32cc	.
8Gn\J 8d- 8gn	32b-\ 32dd-	.
.	32a\ 32cc	.
.	32b-\ 32dd-	.
.	32a\JJJ 32cc	.
4G\ 4d- 4g	16b-:\ 16dd-: 16ggn:	.
.	16r	.
.	8b-\ 8dd-	.
=57	=57	=57
32qqen>\	.	.
!	!	!LO:DY:t=pp.
32e-X>\LLL 32f> 32b->	32dd-/LLL	pp
32an>\	32cc-X/	.
32b->\	32dd-/	.
32a>\	32cc-/	.
32b->\	32dd-/	.
32a>\	32cc-/	.
32b->\	32dd-/	.
32a>\	32cc-/	.
32b->\	32dd-/	.
32a>\	32cc-/	.
32b->\	32dd-/	.
32a>\	32cc-/	.
32b->\	32dd-/	.
32a>\	32cc-/	.
32b->\	32dd-/	.
32a>\JJJ	32cc-/JJJ	.
!!LO:LB:g=original
=58	=58	=58
!LO:TX:t=P:problem=mixed beam	!	!LO:DY:t=f.
8FF/L 8F	32bn\LLL 32ddn	f
.	32a#X\ 32cc#X	.
.	32b\ 32dd	.
.	32a#\ 32cc#	.
8A-\J 8dn 8a-	32b\ 32dd	.
.	32a#\ 32cc#	.
.	32b\ 32dd	.
.	32a#\JJJ 32cc#	.
4A-\ 4d 4a-	16b\ 16dd 16aa-	.
.	16r	.
.	8b\ 8dd	.
=59	=59	=59
32qqf>\	.	.
32en>\LLL 32f#X> 32bn>	32ddn/LLL	pp
32a#X>\	32ccn/	.
32b>\	32dd/	.
32a#>\	32cc/	.
32b>\	32dd/	.
32a#>\	32cc/	.
32b>\	32dd/	.
32a#>\	32cc/	.
32b>\	32dd/	.
32a#>\	32cc/	.
32b>\	32dd/	.
32a#>\	32cc/	.
32b>\	32dd/	.
32a#>\	32cc/	.
32b>\	32dd/	.
32a#>\JJJ	32cc/JJJ	.
=60	=60	=60
!LO:TX:t=P:problem=mixed beam	!	!LO:DY:t=f.
8FF/L 8F	32bn/LLL 32ddn	f
.	32a#X/ 32cc#X	.
.	32b/ 32dd	.
.	32a#/ 32cc#	.
8A-\J 8dn 8a-	32b/ 32dd	.
.	32a#/ 32cc#	.
.	32b/ 32dd	.
.	32a#/JJJ 32cc#	.
4A-\ 4d 4a-	16b:/ 16dd: 16aa-:	.
.	16r	.
.	8b/ 8dd	.
=61	=61	=61
32qqf>\	.	.
!	!	!LO:DY:t=pp.
32en>\LLL 32f#X> 32bn>	32ddn/LLL	pp
32a#X>\	32ccn/	.
32b>\	32dd/	.
32a#>\	32cc/	.
32b>\	32dd/	.
32a#>\	32cc/	.
32b>\	32dd/	.
32a#>\	32cc/	.
32b>\	32dd/	.
32a#>\	32cc/	.
32b>\	32dd/	.
32a#>\	32cc/	.
32b>\	32dd/	.
32a#>\	32cc/	.
32b>\	32dd/	.
32a#>\JJJ	32cc/JJJ	.
!!LO:LB:g=original
*ok[gn]	*ok[gn]	*
=62||	=62||	=62||
*ok[b-e-a-d-gn]	*ok[b-e-a-d-gn]	*
*k[b-e-a-d-]	*k[b-e-a-d-]	*
32qqf#X>\	.	.
32fn>\LLL 32g>	32ee-/LLL	.
32bn>\	32dd-/	.
32cc>\	32ee-/	.
32b>\	32dd-/	.
32cc>\	32ee-/	.
32b>\	32dd-/	.
32cc>\	32ee-/	.
32b>\	32dd-/	.
32cc>\	32ee-/	.
32b>\	32dd-/	.
32cc>\	32ee-/	.
32b>\	32dd-/	.
32cc>\	32ee-/	.
32b>\	32dd-/	.
32cc>\	32ee-/	.
32b>\JJJ	32dd-/JJJ	.
=63	=63	=63
32qqf#X>\	.	.
32fn>\LLL 32g> 32cc>	32ee-/LLL	.
32bn>\	32dd-/	.
32cc>\	32ee-/	.
32b>\	32dd-/	.
32cc>\	32ee-/	.
32b>\	32dd-/	.
32cc>\	32ee-/	.
32b>\	32dd-/	.
32cc>\	32ee-/	.
32b>\	32dd-/	.
32cc>\	32ee-/	.
32b>\	32dd-/	.
32cc>\	32ee-/	.
32b>\	32dd-/	.
32cc>\	32ee-/	.
32b>\JJJ	32dd-/JJJ	.
=64	=64	=64
32qqf#X>\	.	.
32fn>\LLL 32g> 32cc>	32ee-/LLL	.
32bn>\	32dd-/	.
32cc>\	32ee-/	.
32b>\	32dd-/	.
32cc>\	32ee-/	.
32b>\	32dd-/	.
32cc>\	32ee-/	.
32b>\	32dd-/	.
32cc>\	32ee-/	.
32b>\	32dd-/	.
32cc>\	32ee-/	.
32b>\	32dd-/	.
32cc>\	32ee-/	.
32b>\	32dd-/	.
32cc>\	32ee-/	.
!LO:TX:t=[segno]	!LO:TX:t=[segno]	!
32b>\JJJ	32dd-/JJJ	.
=65||	=65||	=65||
!	!	!LO:DY:t=p.
32cc>\LLL	32ee-/LLL	p
32b->\	32dd-/	.
32cc>\	32ee-/	.
32b->\	32dd-/	.
32cc>\	32ee-/	.
32b->\	32dd-/	.
32cc>\	32ee-/	.
32b->\JJJ	32dd-/JJJ	.
8d->\ 8f>	16aa-/	.
.	16r	.
8r>	8b-/ 8dd-	.
!!LO:LB:g=original
=66	=66	=66
!LO:TX:t=P:problem=mixed beam	!	!
8EE-/L	(32b-\LLL 32dd-	.
.	32a-\ 32cc	.
.	32b-\ 32dd-	.
.	32a-\ 32cc	.
8E-\J 8A- 8c	32b-\ 32dd-	.
.	32a-\ 32cc	.
.	32b-\ 32dd-	.
.	32a-\JJJ) 32cc	.
8e-\	16a-:`\ 16cc: 16ff:	.
.	16r	.
8r	8a-\ 8cc	.
=67	=67	=67
!LO:TX:t=P:problem=mixed beam	!	!
8EE-/L	16a-\LL 16cc	.
.	16en\JJ 16b-	.
8E-\J 8A- 8B- 8dn	8a-\ 8b- 8ff	.
!LO:TX:t=P:problem=mixed beam	!	!
8EE-/L	16g\LL 16cc	.
.	16d-X\JJ 16b-	.
8E-\J 8G 8d-X	8g\ 8b- 8ee-	.
=68	=68	=68
8AA-\L	16e-\LL 16b-	.
.	16c\JJ 16a-	.
8E-\J 8A- 8c	8a-\L 8ee-	.
*clefG2	*	*
4e-/ 4a- 4cc	8ee-\J 8eee-	.
*	*8va	*
.	8eee-\ 8aaa- 8eeee-	.
*	*X8va	*
*clefF4	*	*
=69	=69	=69
!LO:TX:t=P:problem=mixed beam	!	!
8DD-/L	(32cc\LLL 32ee-	.
.	32b-\ 32dd-	.
.	32cc\ 32ee-	.
.	32b-\ 32dd-	.
8D-\J 8A- 8B-	32cc\ 32ee-	.
.	32b-\ 32dd-	.
.	32cc\ 32ee-	.
.	32b-\JJJ 32dd-	.
8f\	16b-`:\) 16dd-: 16aa-:	.
.	16r	.
8r	8b-\ 8dd-	.
=70	=70	=70
!LO:TX:t=P:problem=mixed beam	!	!
8EE-/L	(32b-\LLL 32dd-	.
.	32a-\ 32cc	.
.	32b-\ 32dd-	.
.	32a-\ 32cc	.
8E-\J 8A- 8c	32b-\ 32dd-	.
.	32a-\ 32cc	.
.	32b-\ 32dd-	.
.	32a-\JJJ 32cc	.
8e-\	16a-`:\) 16cc: 16ff:	.
.	16r	.
8r	8a-\ 8cc	.
!!LO:LB:g=original
=71	=71	=71
!LO:TX:t=P:problem=mixed beam	!	!
8EE-\L	16a-\LL 16cc	.
.	16dn\JJ 16b-	.
8E-\J 8A- 8B- 8dn	8a-\ 8b- 8ff	.
!LO:TX:t=P:problem=mixed beam	!	!
8EE-\L	16g\LL 16cc	.
.	16d-X\JJ 16b-	.
8E-\J 8G 8d-X	8g\ 8b- 8ee-	.
=72	=72	=72
8AA-\L	8c\L 8e- 8a-	.
8e-\J 8a-	8cc\J 8ee- 8aa-	.
*clefG2	*	*
4ee-\ 4aa-	4ccc\ 4eee- 4aaa-	.
*clefF4	*	*
=73||	=73||	=73||
!LO:TX:t=P:problem=mixed beam	!	!LO:DY:t=ff.
8EE-/L 8BB- 8E-	16ee-\LL 16gg	ff
.	16b-\ 16ff	.
8G\J 8B- 8e- 8g	16g\ 16ee-	.
.	16b-\JJ 16ddn	.
4G\ 4B- 4e- 4g	8cc'\L 8ee-	.
.	(8g\J 8b-	.
=74	=74	=74
!LO:TX:t=P:problem=mixed beam	!	!
8BBB-/L 8BB-	8cc'\) 8ddn	.
8F\J 8A- 8B- 8dn	(8a-\L 8b-	.
4F\ 4A- 4c-X 4d	8cc-X\J) 8dd	.
.	8a-\ 8cc-X	.
=75	=75	=75
8BB-\L	16b-\LL 16ddn	.
.	16cc\ 16ee-	.
8F\J 8B- 8dn	16cc#X\ 16een	.
.	16dd\JJ 16ff	.
4B-\ 4d 4a-	16dd'\LL 16ccc	.
.	16bb-\	.
.	16aan\	.
.	16aa-X\JJ	.
=76	=76	=76
!LO:TX:t=P:problem=mixed beam	!LO:TX:b:i:t=espr.	!
8EE-/L	16ee-\LL 16gg	.
.	16ddn\	.
8G\J 8B- 8e- 8g	16dd-X\ 16gg	.
.	16cc\JJ	.
!LO:TX:t=P:problem=mixed beam	!	!
8A-\L 8B- 8dn 8a-	16cc-X\LL 16aa-	.
.	16b-\	.
8BB-/J	16an\ 16ddn	.
.	16a-X\JJ	.
!!LO:LB:g=original
=77	=77	=77
!LO:TX:t=P:problem=mixed beam	!	!LO:DY:t=ff.
8EE-/L 8BB- 8E-	16g\LL 16ee- 16gg	ff
.	16b-\ 16ff	.
8G\J 8B- 8e- 8g	16g\ 16ee-	.
.	16b-\JJ 16ddn	.
4G\ 4B- 4e- 4g	8cc'\ 8ee-	.
!	!LO:TX:t=P:problem=cross-measure beam	!
.	(8g\L 8b-	.
=78	=78	=78
!LO:TX:t=P:problem=mixed beam	!	!
8BBB-/L	8cc'\J) 8ddn	.
8F\J 8A- 8B- 8dn	(8a-\L 8b-	.
4F\ 4A- 4c-X 4d	8cc-X'\J) 8dd	.
.	8a-\ 8cc-	.
=79	=79	=79
8BB-\L	16b-\LL 16ddn	.
.	16cc\ 16ee-	.
8F\J 8B- 8dn	16cc#X\ 16een	.
.	16dd\JJ 16ff	.
8B-\L 8d 8a-	16dd\LL 16bb-	.
.	16bbn\	.
8BB-\J	16ccc\	.
.	16dddn\JJ	.
=80	=80	=80
8EE-^^\ 8E-	8ee-^^<\ 8eee-	.
8r	8r	.
4B-;\ 4d- 4f-X	4g;\ 4dd- 4ff-X	.
=81||	=81||	=81||
!	!	!LO:DY:t=p.
32e-\LLL	(32cc\LLL 32ee-	p
32d-\	32b-\ 32dd-	.
32e-\	32cc\ 32ee-	.
32d-\	32b-\ 32dd-	.
32e-\	32cc\ 32ee-	.
32d-\	32b-\ 32dd-	.
32e-\	32cc\ 32ee-	.
32d-\JJJ	32b-\JJJ) 32dd-	.
8D-:\ 8B-: 8f:	16b-`:\ 16dd-: 16aa-:	.
.	16r	.
!	!LO:N:vis=4	!
8r	8b-\ 8dd-	.
=82	=82	=82
8EE-\L	(32b-\LLL 32dd-	.
.	32a-\ 32cc	.
.	32b-\ 32dd-	.
.	32a-\ 32cc	.
8E-\J 8A- 8c	32b-\ 32dd-	.
.	32a-\ 32cc	.
.	32b-\ 32dd-	.
.	32a-\JJJ) 32cc	.
8e-\	16a-'\ 16cc 16ff	.
.	16r	.
!	!LO:N:vis=4	!
8r	8a-\ 8cc	.
!!LO:PB:g=original
=83	=83	=83
8EE-\L	16a-\LL 16cc	.
.	16dn\JJ 16b-	.
8E-\J 8A- 8B- 8dn	8a-:\ 8b-: 8ff:	.
!LO:TX:t=P:problem=mixed beam	!	!
8EE-/L	16g\LL 16cc	.
.	16d-X\JJ 16b-	.
8E-\J 8G 8d-X	8g:\ 8b-: 8ee-:	.
=84	=84	=84
8AA-\L	16e-\LL 16b-	.
.	16c\JJ 16a-	.
8E-\J 8A- 8c	8a-\L 8ee-	.
*clefG2	*	*
4e-/ 4a- 4cc	8ee-\J 8aa- 8eee-	.
*	*8va	*
.	8eee-\ 8aaa- 8eeee-	.
*	*X8va	*
*clefF4	*	*
=85	=85	=85
!LO:TX:t=P:problem=mixed beam	!	!
8DD-/L	32cc\LLL 32ee-	.
.	32b-\ 32dd-	.
.	32cc\ 32ee-	.
.	32b-\ 32dd-	.
8D-\J 8A- 8B-	32cc\ 32ee-	.
.	32b-\ 32dd-	.
.	32cc\ 32ee-	.
.	32b-\JJJ 32dd-	.
4A-\ 4B- 4f	16b-:\ 16dd-: 16aa-:	.
.	16r	.
.	8b-\ 8dd-	.
=86	=86	=86
!LO:TX:t=P:problem=mixed beam	!LO:TX:b:t=cres_:problem=dynamics with extention lines	!
8FF/L	32cc-X\LLL 32ddn	<
.	32b-\ 32dd-X	.
.	32cc-\ 32ddn	.
.	32b-\ 32dd	.
8F\J 8c-X 8dn	32cc-\ 32ddn	.
.	32b-\ 32dd-X	.
.	32cc-\ 32ddn	.
.	32b-\JJJ 32dd-X	.
4c-\ 4d 4a-	16b-:\ 16ddn: 16aa-:	.
.	16r	.
.	8cc-\ 8dd	.
=87	=87	=87
8AA-\L	32ddn\LLL 32ff	.
.	32dd-X\ 32een	.
.	32ddn\ 32ff	.
.	32dd-X\ 32ee	.
8A-\J 8dn 8f	32ddn\ 32ff	.
.	32dd-X\ 32ee	.
.	32ddn\ 32ff	.
.	32dd-X\JJJ 32ee	.
4d\ 4f 4cc-X	16ddn:\ 16ff: 16ccc-X:	.
.	16r	.
.	8dd\ 8ff	.
!!LO:LB:g=original
=88	=88	=88
!LO:TX:t=P:problem=mixed beam	!	!
8C-X\L	32ff\LLL 32aa-	.
.	32een\ 32gg	.
.	32ff\ 32aa-	.
.	32ee\ 32gg	.
*clefG2	*	*
8c-X/J 8f 8a-	32ff\ 32aa-	.
.	32ee\ 32gg	.
.	32ff\ 32aa-	.
.	32ee\JJJ 32gg	.
4f/ 4a- 4ddn	16ff:\ 16aa-: 16dddn:	.
.	16r	.
.	8ff\ 8aa-	.
*clefF4	*	*
=89	=89	=89
!	!	!LO:DY:t=ff.
8EEE-/ 8EE-	8ee-\ 8aa- 8ccc 8eee-	ff
*clefG2	*	*
16f/LL 16a-	16ff\LL 16aa-	.
16c/JJ 16en	16cc\JJ 16een	.
16f/LL 16a-	16ff\LL 16aa-	.
16c/JJ 16e-X	16cc\ 16ee-X	.
16f/LL 16a-	16ff\ 16aa-	.
16c/JJ 16dn	16cc\JJ 16ddn	.
=90	=90	=90
16f/LL 16g	16ff\LL 16gg	.
16d-/ 16e-	16dd-\ 16ee-	.
16f/ 16g	16ff\ 16gg	.
16d-/JJ 16en	16dd-\JJ 16een	.
16f/LL 16g	16ff\LL 16gg	.
16d-/ 16e-X	16dd-\ 16ee-X	.
16f/ 16g	16ff\ 16gg	.
16d-/JJ 16dn	16dd-\JJ 16ddn	.
*clefF4	*	*
=91	=91	=91
!	!	!LO:DY:t=ff.
8EE-/ 8E-	8ee-\ 8aa- 8ccc 8eee-	ff
*clefG2	*	*
16f/LL 16a-	16ff\LL 16aa-	.
16c/JJ 16en	16cc\JJ 16een	.
16f/LL 16a-	16ff\LL 16aa-	.
16c/JJ 16e-X	16cc\ 16ee-X	.
16f/LL 16a-	16ff\ 16aa-	.
16c/JJ 16dn	16cc\JJ 16ddn	.
=92	=92	=92
16f/LL 16g	16ff\LL 16gg	.
16d-/ 16e-	16dd-\ 16ee-	.
16f/ 16g	16ff\ 16gg	.
16d-/JJ 16en	16dd-\JJ 16een	.
16f/LL 16g	16ff\LL 16gg	.
16d-/ 16e-X	16dd-\ 16ee	.
16f-X/ 16g	16ff-X\ 16gg	.
16d-/JJ 16e-	16dd-\JJ 16ee	.
!!LO:LB:g=original
*clefF4	*	*
=93	=93	=93
!	!	!LO:DY:t=ff.
8AAA-/ 8AA-	8aa-\ 8aaa-	ff
*clefG2	*	*
16f-X/LL 16a-	16ff-X\LL 16aa-	.
16c/JJ 16e-	16cc\JJ 16ee-	.
4c-X/ 4e-- 4f-	4a-\ 4ee-- 4ff-	.
*clefF4	*	*
=94	=94	=94
8AAA-/ 8AA-	8aa-\ 8aaa-	.
*clefG2	*	*
16f-X/LL 16a-	16ff-X\LL 16aa-	.
16c/JJ 16e-	16cc\JJ 16ee-	.
4e--/ 4f- 4a-	4cc-X\ 4ff- 4aa-	.
*clefF4	*	*
=95	=95	=95
8AAA-/ 8AA-	8aa-\ 8aaa-	.
*clefG2	*	*
16f-X/LL 16a-	16ff-X\LL 16aa-	.
16c/JJ 16e-	16cc\JJ 16ee-	.
4c-X/ 4e-- 4f-	4a-\ 4ee-- 4ff-	.
*clefF4	*	*
=96	=96	=96
8AAA-/ 8AA-	8aa-\ 8aaa-	.
*clefG2	*	*
16f-X/LL 16a-	16ff-X\LL 16aa-	.
16c/JJ 16e-	16cc\JJ 16ee-	.
4e--\ 4f- 4a-	4cc-X\ 4ff- 4aa-	.
*clefF4	*	*
=97	=97	=97
8AAA-/ 8AA-	8aa-\L 8aaa-	.
*clefG2	*	*
8A-/L 8c 8e-	8a-\ 8cc 8ff	.
8c/ 8e- 8a-	8cc\ 8ee- 8aa-	.
8e-/J 8a- 8cc	8ee-\J 8aa- 8ccc	.
=98	=98	=98
8a-\L 8cc 8ff	8aa-\L 8ccc 8eee-	.
8cc\ 8ee- 8aa-	8eee-\ 8aaa-	.
*	*8va	*
8ee-\ 8aa- 8ccc	8eee-\ 8aaa- 8cccc	.
8aa-\J 8ccc 8eee-	8aaa-\J 8cccc 8eeee-	.
=99	=99	=99
!	!LO:TX:a:t=loco	!
4ccc\ 4eee- 4aaa-	4cccc\ 4aaaa-	.
*	*X8va	*
4r	4r	.
!!LO:LB:g=original
=100	=100	=100
*clefF4	*	*
4AA-/ 4C 4c 4a-	4cc\ 4ee- 4aa- 4ccc	.
4r	4r	.
=101	=101	=101
!	!LO:TX:b:t=Fine	!
.	16qqA-/	.
2AAA-/ 2AA-	2A-/	.
!!LO:PB:g=original
==	==	==
*-	*-	*-
!!!system-decoration: {(s1,s2)}
!!!RDF**kern: < = below
!!!RDF**kern: > = above
!!!ENC: Marta Chmielewska
!!!END: 2021-05-21
!!!ENC: Tomasz Grochalski
!!!END: 2021-05-03
